!!!OTL: Chan caopi
!!!ARE: Asia, China,ÿJiangxi, Xinfeng
!! IV, 232
!!!SCT: C1675
!!!YEM: Copyright 1995, estate of Helmut Schaffrath.
**kern
*ICvox
*Ivox
*M2/4
*k[]
*C:
{8ee
8dd
8cc
8dd
=1
4ee
4dd
=2
8ee
8g
8cc
8cc
=3
4a
4g}
=4
{8cc
8ee
8dd
8cc
=5
8e
8g
4e
=6
8dd
8g
8cc
8cc
=7
4a
4g}
==
!!!AGN: Shange
!!!AMT: simple duple
!!!AIN: vox
!!!EED: Helmut Schaffrath
!!!EEV: 1.0
*-
